X: 29
T: le Tourment
T: the Torment
C: Jean-Paul Loyer 1975
R: jig
O: Qu\'ebec
N: Sometimes played with the parts in the other order.
M: 6/8
L: 1/8
K: G
 D \
|: "G"G2G "D7"AGA | "G"Bdc BAG | "C"E2c cBc | "D7"d2d def \
| "Em"gfg "Bm"d2d | "C"ede "G"B2B | "Am"cBA "G"BAG |1 "D7"A2F DEF :|2 "D7"DGF "G"G2 ||
|: F \
| "C"E2E EFG | "G"DGF GAB | "Bm"d2d dcB | "Am"cBA "G"BAG \
| "C"E2E EFG | "G"DGF GAB | "Bm"d2B "Am"cBA | "D7"DGF "G"G2 :|

%%sep 1 1 500

